X:1
T:Reel de la Casa
C:Trad Quebecois
M:4/4
L:1/8
Q:500
R:Reel
Z:Si Garbutt tradtunes 2003-2-21
K:C
A3 B c2A2|B2 c2 B4|B2 cd e3 d|c2 B2 c2 A2|
A3 B c2A2|B2 c2 B4|B2 cd e3 d|c2 B2 A4:|
M:4/4
e2 fg a2 a2|g2 f2 e3 f|e2 d2 c2 B2|[M:2/4] c2 A2|[M:4/4]
e2 fg a3 a|g2 f2 e3 f|e2 d2 c2 B2|[M:2/4] A4:|
